X: 26186
T: McMahon's
R: hornpipe
M: 4/4
K: Gmajor
|:GE|DGBG cGBG|DGBd gfga|bgga gdBd|(3cBA BG AGEG|
DGBG cGBG|DGBd gfga|bgga gdBd|(3cBA FA G2:|
|:ga|bg ~g2 agef|gfgf eB ~B2|eB ~B2 eBgf|(3efe (3dcB AGEG|
DGBG cGBG|DGBd gfga|bgga gdBd|(3cBA FA G2:|

